X: 104
T: Miss Sutherland Gunn (Elgin)
R:Strathspey
C:J. Scott Skinner
S:MacDonald - Skye Collection
N:pg.165
M:C
L:1/8
K:F
C|(C<~F F>)G A>G A<c|d>c {c}(f>A) {A}G>F G<A|
C<~F F>G A>B (A<c)|{c}(d>c) {c})f>A) {A}(G2 F):|
c|{c}d>c {c}f>c d>c A<c|d>c AF GF (D<F)|
(CD/E/) F>G A>G (A<c)|{c}d>c {c}f>A {A}G2 G>c|
{c}(d>c) {c}(f>c) d>c A<c|d>c AF GF D_D|
(C>F) (_D>F) C(D/E/ F)(G/A/|~B(c/d/ c)B/A/ {A}G2 F||


